X:1
T:I Hear Thy Welcome Voice
T:Lewis Hartsborough, 1872
T:I Hear Thy Welcome Voice
T:Public Domain
T:Public Domain
C:Lewis Hartsborough, 1872
Z:Public Domain
%%score ( 1 2 ) ( 3 4 )
L:1/8
M:3/4
K:Eb
V:1 treble 
V:2 treble 
V:3 bass 
V:4 bass 
V:1
 (EG) | [GB]3 [EG] [DF]E | E4 E2 | [DF]3 [FA] [Fc][FB] | [EG]4 [GB]2 | [Ge]3 [Bd] [Ac][GB] | %6
w: 1.~I *|hear Thy we- lcome|voice That|Lord, to Thee, For|cleans- ing|in Thy pre- cious|
w: 2.~Though *|com- ing weak and|vile, Thou|strength as- sure; Thou|dost my|vile- ness ful- ly|
w: 3.~’Tis *|Je- sus calls me|on To|faith and love, To|perf- ect|hope and peace and|
w: 4.~’Tis *|Je- sus Who con-|firms The|work with- in, By|add- ing|grace to wel- comed|
w: 5.~And *|He the wit- ness|gives To|hearts and free That|ev- ery|pro- mise is ful-|
w: 6.All *|hail! a- ton- ing|blood! All|deem- ing grace! All|hail! the|gift of Christ our|
 [Ac][GB] [EG]2 E2 | [DF]3 E [EG][DF] | E6 ||"^Refrain" [Ge]3 [Bd] [Ac][GB] | [Ac]6 | %11
w: blood That flowed on|Cal- va- ry. *||||
w: cleanse, Till spot- less|all, and pure. *||||
w: trust, For earth and|heav’n a- bove. *||||
w: grace, Where reigned the|power of sin. *||||
w: filled, If faith but|brings the plea. *||||
w: Lord, Our Strength and|Right- eous- ness. *||||
 [GB]3 [EG] [DF]E | [DF]6 [EB]3 [Ec][EG][DF] | E[DF] [EG]2 E2 | [DF]3 E [EG][DF] | [B,E]4 |] %16
w: |||||
w: |||||
w: |||||
w: |||||
w: |||||
w: |||||
V:2
 x2 | x6 | E4 E2 | x6 | x6 | x6 | x6 | x3 E x2 | E6 || x6 | x6 | x5 E | x12 | E x2 E2 x | x6 | %15
w: ||calls me,|||||||||||||
w: ||dost my|||||||||||||
w: ||per- fect|||||||||||||
w: ||bless- èd|||||||||||||
w: ||loy- al|||||||||||||
w: ||hail! re-|||||||||||||
 x4 |] %16
w: |
w: |
w: |
w: |
w: |
w: |
V:3
 (G,B,) | [E,E]3 [E,B,] [E,A,][E,G,] | [E,G,]4 [E,G,]2 | [B,,B,]3 [B,,B,] [D,B,][D,B,] | %4
w: ~ *|~ ~ ~ ~|~ ~|~ ~ ~ ~|
 [E,B,]4 [E,B,]2 | [E,B,]3 [E,E] [E,E][E,E] | [E,E][E,E] [E,B,]2 [E,G,]2 | %7
w: ~ ~|~ ~ ~ ~|~ ~ ~ ~|
 [B,,A,]3 [B,,G,] [B,,B,][B,,A,] | [E,G,]6 || [E,B,]3 [E,E] [E,E][E,E] | [A,E]6 | %11
w: ~ ~ ~ ~|I|am com- ing Lord!|Com-|
 [E,E]3 [E,B,] [E,A,][E,G,] | [B,,B,]6 [E,G,]3 [E,A,][E,B,][B,,A,] | %13
w: ing now to Thee!|Wash me, cleanse me in|
 [C,G,][B,,B,] [E,B,]2 [E,G,]2 | [B,,A,]3 [C,G,] [B,,B,][B,,A,] | [E,G,]4 |] %16
w: the blood That flowed|on Cal- va- ry!||
V:4
 E,2 | x6 | x6 | x6 | x6 | x6 | x6 | x6 | x6 || x6 | x6 | x6 | x12 | x6 | x6 | x4 |] %16
w: ~||||||||||||||||

